X: 030813
T: Croghan Hill
S: "100 Enduring Irish Session Tunes" ("Mally")
Z: B.Black
L: 1/8
M: 4/4
R: reel
K: G
zd|G GB dBBd|gBfB eBdB|c2 ec BddB|Add^c dedB|
GFGB dBBd|gBfB eBdB|c2 ec BddB|AGFA G2 :|
Bd|g2 gf gdBd|gBfB eBdB|c2 ec BddB|Add^c defd|
g2 gf gdBd|gBfB eBdB|c2 ec BddB|AGFA G2 :|
